assets/Leopard/Flat/leopard_flat.svg

<svg width="32" height="32" viewBox="0 0 32 32" fill="none" xmlns="http://www.w3.org/2000/svg">
<path d="M13.5 22.52L15.39 29.61C15.45 29.81 15.3 30 15.09 30H11.46C11.28 30 11.15 29.84 11.18 29.67L11.35 28.69C11.41 28.36 11.66 28.11 11.97 28.03L10.5 22.52H13.5Z" fill="#FF9F2E"/>
<path d="M16.97 28L18.44 22.52H21.42L19.52 29.63C19.46 29.85 19.27 30 19.04 30H16.2C16.01 30 15.87 29.83 15.9 29.64L16.07 28.69C16.14 28.29 16.49 28 16.89 28H16.97Z" fill="#FF9F2E"/>
<path d="M4.74 18H6L7.32233 20.3509L7.99 23.63V28C7.44 28 7 28.44 7 28.98V29.58C7 29.81 7.19 30 7.42 30H10.67C10.84 30 10.98 29.86 10.98 29.69V24H19.56L21.96 26.4L21.53 28H21.31C20.83 28 20.41 28.33 20.3 28.79L20.1 29.59C20.05 29.8 20.21 30 20.43 30H23.65C23.87 30 24.06 29.86 24.12 29.66L25.62 25.16C25.77 24.7 25.88 24.22 25.94 23.73C25.94 23.71 25.94 23.69 25.95 23.68C25.95 23.66 25.95 23.65 25.96 23.63C25.96 23.61 25.96 23.59 25.97 23.57C25.97 23.55 25.9725 23.53 25.975 23.51C25.9775 23.49 25.98 23.47 25.98 23.45C25.98 23.435 25.9825 23.4175 25.985 23.4C25.9875 23.3825 25.99 23.365 25.99 23.35C25.99 23.33 25.9925 23.31 25.995 23.29C25.9974 23.2706 25.9998 23.2513 26 23.2319V24C26 25.65 27.35 27 29 27C29.55 27 30 26.55 30 26C30 25.45 29.55 25 29 25C28.45 25 28 24.55 28 24V18C28 16.35 26.65 15 25 15H24.18C24.1605 15 24.1411 15.0006 24.1218 15.0017C24.0947 15.0006 24.0674 15 24.04 15H19.2342L17.9961 15.6542L16.6664 15H15.29C14.5103 15 13.7478 14.7846 13.0826 14.3858C13.0311 14.355 11.3056 14.2227 11.3056 14.2227V12.3169C11.1001 11.811 10.99 11.263 10.99 10.7V9.5C10.99 8.67 10.32 8 9.49 8C8.66 8 7.99 8.67 7.99 9.5V10H7.64C5.63 10 4 11.63 4 13.64C4 13.84 3.84 14 3.64 14L2.57812 15.6953L4 17.8984C4.2355 17.9646 4.48372 18 4.74 18Z" fill="#FFB02E"/>
<path d="M10 10V9.5C10 9.22 9.78 9 9.5 9C9.22 9 9 9.22 9 9.5V10H10Z" fill="#FFDEA7"/>
<path d="M2 15.26C2 16.52 2.85 17.57 4 17.9V13.64C4 13.84 3.84 14 3.64 14H2.82031L2 15.26Z" fill="#FFDEA7"/>
<path d="M7.99 19.99V23.63C6.81 23.04 6 21.83 6 20.42V18C7.1 18 7.99 18.89 7.99 19.99Z" fill="#FFDEA7"/>
<path d="M11.95 14.96C12.41 14.96 12.83 14.74 13.08 14.39C13.0667 14.3821 13.0526 14.3741 13.0383 14.3659C12.9987 14.3434 12.9567 14.3194 12.92 14.29C12.18 13.8 11.62 13.1 11.3 12.3C10.85 12.54 10.54 13.01 10.54 13.55C10.54 14.33 11.17 14.96 11.95 14.96Z" fill="#6D4534"/>
<path d="M17.95 16C17.32 16 16.8 15.58 16.64 15H19.26C19.1 15.58 18.58 16 17.95 16Z" fill="#6D4534"/>
<path d="M13.95 18.05C14.5023 18.05 14.95 17.6023 14.95 17.05C14.95 16.4978 14.5023 16.05 13.95 16.05C13.3977 16.05 12.95 16.4978 12.95 17.05C12.95 17.6023 13.3977 18.05 13.95 18.05Z" fill="#6D4534"/>
<path d="M15 20.59C15 20.9158 14.7359 21.18 14.41 21.18C14.0842 21.18 13.82 20.9158 13.82 20.59C13.82 20.2642 14.0842 20 14.41 20C14.7359 20 15 20.2642 15 20.59Z" fill="#6D4534"/>
<path d="M22.18 20.59C22.18 20.9158 21.9158 21.18 21.59 21.18C21.2642 21.18 21 20.9158 21 20.59C21 20.2642 21.2642 20 21.59 20C21.9158 20 22.18 20.2642 22.18 20.59Z" fill="#6D4534"/>
<path d="M22.95 17.05C22.95 17.6023 22.5023 18.05 21.95 18.05C21.3977 18.05 20.95 17.6023 20.95 17.05C20.95 16.4978 21.3977 16.05 21.95 16.05C22.5023 16.05 22.95 16.4978 22.95 17.05Z" fill="#6D4534"/>
<path d="M17.95 20C18.7011 20 19.31 19.3911 19.31 18.64C19.31 17.8889 18.7011 17.28 17.95 17.28C17.1989 17.28 16.59 17.8889 16.59 18.64C16.59 19.3911 17.1989 20 17.95 20Z" fill="#6D4534"/>
<path d="M30 26C30 26.55 29.55 27 29 27C28.65 27 28.31 26.94 28 26.83V24C28 24.55 28.45 25 29 25C29.55 25 30 25.45 30 26Z" fill="#6D4534"/>
<path d="M5 14.5C5 14.78 5.22 15 5.5 15C5.78 15 6 14.78 6 14.5V14C6 13.72 5.78 13.5 5.5 13.5C5.22 13.5 5 13.72 5 14V14.5Z" fill="#212121"/>
<path d="M2 14.72C2 14.32 2.32 14 2.72 14H3.69L2 15.5781V14.72Z" fill="#212121"/>
</svg>

<svg xmlns="http://www.w3.org/2000/svg" width="32" height="32" fill="none"><path fill="#FF9F2E" d="m13.5 22.52 1.89 7.09c.06.2-.09.39-.3.39h-3.63c-.18 0-.31-.16-.28-.33l.17-.98a.84.84 0 0 1 .62-.66l-1.47-5.51h3ZM16.97 28l1.47-5.48h2.98l-1.9 7.11c-.06.22-.25.37-.48.37H16.2c-.19 0-.33-.17-.3-.36l.17-.95c.07-.4.42-.69.82-.69h.08Z"/><path fill="#FFB02E" d="M4.74 18H6l1.322 2.35.668 3.28V28c-.55 0-.99.44-.99.98v.6c0 .23.19.42.42.42h3.25c.17 0 .31-.14.31-.31V24h8.58l2.4 2.4-.43 1.6h-.22c-.48 0-.9.33-1.01.79l-.2.8c-.05.21.11.41.33.41h3.22c.22 0 .41-.14.47-.34l1.5-4.5c.15-.46.26-.94.32-1.43 0-.02 0-.04.01-.05 0-.02 0-.03.01-.05 0-.02 0-.04.01-.06 0-.02.003-.04.005-.06.002-.02.005-.04.005-.06 0-.015.003-.032.005-.05a.376.376 0 0 0 .005-.05c0-.02.003-.04.005-.06.002-.02.005-.039.005-.058V24c0 1.65 1.35 3 3 3 .55 0 1-.45 1-1s-.45-1-1-1-1-.45-1-1v-6c0-1.65-1.35-3-3-3h-.82c-.02 0-.039 0-.058.002A2.018 2.018 0 0 0 24.04 15h-4.806l-1.238.654-1.33-.654H15.29c-.78 0-1.542-.215-2.207-.614-.052-.031-1.777-.163-1.777-.163v-1.906a4.294 4.294 0 0 1-.316-1.617V9.5c0-.83-.67-1.5-1.5-1.5s-1.5.67-1.5 1.5v.5h-.35A3.64 3.64 0 0 0 4 13.64c0 .2-.16.36-.36.36l-1.062 1.695L4 17.898c.236.067.484.102.74.102Z"/><path fill="#FFDEA7" d="M10 10v-.5c0-.28-.22-.5-.5-.5s-.5.22-.5.5v.5h1ZM2 15.26c0 1.26.85 2.31 2 2.64v-4.26c0 .2-.16.36-.36.36h-.82L2 15.26ZM7.99 19.99v3.64A3.582 3.582 0 0 1 6 20.42V18c1.1 0 1.99.89 1.99 1.99Z"/><path fill="#6D4534" d="M11.95 14.96c.46 0 .88-.22 1.13-.57l-.042-.024A4.307 4.307 0 0 1 11.3 12.3a1.408 1.408 0 0 0 .65 2.66ZM17.95 16c-.63 0-1.15-.42-1.31-1h2.62c-.16.58-.68 1-1.31 1ZM13.95 18.05a1 1 0 1 0 0-2 1 1 0 0 0 0 2ZM15 20.59a.59.59 0 1 1-1.18 0 .59.59 0 0 1 1.18 0ZM22.18 20.59a.59.59 0 1 1-1.18 0 .59.59 0 0 1 1.18 0ZM22.95 17.05a1 1 0 1 1-2 0 1 1 0 0 1 2 0ZM17.95 20a1.36 1.36 0 1 0 0-2.72 1.36 1.36 0 0 0 0 2.72ZM30 26c0 .55-.45 1-1 1a3 3 0 0 1-1-.17V24c0 .55.45 1 1 1s1 .45 1 1Z"/><path fill="#212121" d="M5 14.5c0 .28.22.5.5.5s.5-.22.5-.5V14c0-.28-.22-.5-.5-.5s-.5.22-.5.5v.5ZM2 14.72c0-.4.32-.72.72-.72h.97L2 15.578v-.858Z"/></svg>
